lib/flags/s/GUM.svg

<svg xmlns="http://www.w3.org/2000/svg" fill="none" viewBox="0 0 16 12"><mask id="GUM_svg__a" width="16" height="12" x="0" y="0" mask-type="alpha" maskUnits="userSpaceOnUse"><path fill="#fff" d="M0 0H16V12H0z"/></mask><g mask="url(#GUM_svg__a)"><path fill="#C51918" fill-rule="evenodd" d="M0 0H16V12H0V0Z" clip-rule="evenodd"/><path fill="#4564F9" fill-rule="evenodd" d="M2 2H14V10H2V2Z" clip-rule="evenodd"/><path stroke="#CBDAFF" stroke-opacity=".1" d="M2.5 2.5H13.5V9.5H2.5V2.5Z"/><mask id="GUM_svg__b" width="12" height="8" x="2" y="2" mask-type="alpha" maskUnits="userSpaceOnUse"><path fill="#fff" fill-rule="evenodd" d="M2 2H14V10H2V2Z" clip-rule="evenodd"/><path stroke="#fff" d="M2.5 2.5H13.5V9.5H2.5V2.5Z"/></mask><g mask="url(#GUM_svg__b)"><path fill="#CCE0E5" fill-rule="evenodd" d="M8 2C8 2 11 3.44776 11 5.85885C11 8.26995 8 10 8 10C8 10 5 8.20216 5 5.85885C5 3.51555 8 2 8 2Z" clip-rule="evenodd"/><path stroke="#C1C9F1" stroke-opacity=".148" stroke-width="1.45" d="M8 2L8.3151 1.34706L7.99266 1.19145L7.67309 1.35289L8 2ZM8 2C8.3151 1.34706 8.31532 1.34716 8.31555 1.34727L8.31607 1.34753L8.31732 1.34813L8.32064 1.34975L8.33052 1.35461L8.36276 1.37083C8.38961 1.3845 8.42698 1.40393 8.47339 1.42898C8.5661 1.47905 8.69543 1.55192 8.84924 1.64675C9.15534 1.83548 9.56619 2.11593 9.98031 2.4822C10.7866 3.19533 11.725 4.34225 11.725 5.85885C11.725 7.36191 10.8004 8.57549 10.0071 9.35177C9.59807 9.75198 9.19183 10.0676 8.88872 10.283C8.73651 10.3911 8.60863 10.4752 8.51715 10.5332C8.47137 10.5623 8.43458 10.5848 8.40829 10.6007L8.37685 10.6195L8.36735 10.6251L8.36422 10.6269L8.36307 10.6275L8.36259 10.6278C8.36238 10.6279 8.36219 10.628 8 10M8 2C7.67309 1.35289 7.67288 1.35299 7.67266 1.3531L7.67216 1.35336L7.67096 1.35397L7.66773 1.35561L7.65804 1.3606L7.62619 1.37733C7.5996 1.39145 7.5625 1.41152 7.51639 1.43739C7.42425 1.48908 7.29557 1.5642 7.14245 1.66149C6.83769 1.85512 6.42861 2.14132 6.01627 2.51066C5.21743 3.22621 4.275 4.37325 4.275 5.85885C4.275 7.33051 5.2032 8.54465 5.98997 9.32343C6.3974 9.72672 6.80209 10.048 7.10399 10.2682C7.25557 10.3788 7.38287 10.4651 7.47382 10.5246C7.51933 10.5545 7.55587 10.5777 7.58192 10.5939L7.613 10.6132L7.62232 10.6189L7.62537 10.6207L7.62648 10.6214L7.62694 10.6216C7.62713 10.6218 7.62732 10.6219 8 10M8 10L8.36219 10.628L7.99294 10.841L7.62732 10.6219L8 10Z"/><path fill="#CCE0E5" d="M8.20001 3.01843L8.54327 2.37984L8.19202 2.19104L7.84448 2.38659L8.20001 3.01843ZM8.20001 3.01843C8.54327 2.37984 8.54349 2.37996 8.54373 2.38009L8.54423 2.38036L8.54538 2.38098L8.54822 2.38252L8.5561 2.38684L8.58024 2.40037C8.59994 2.41154 8.62674 2.42706 8.65963 2.44684C8.72532 2.48635 8.81583 2.54319 8.92293 2.61674C9.13584 2.76295 9.4211 2.97984 9.70881 3.26327C10.2707 3.8168 10.925 4.70854 10.925 5.88386C10.925 7.04728 10.2819 7.98599 9.73423 8.58292C9.45202 8.89051 9.17186 9.13294 8.96247 9.29867C8.85723 9.38198 8.76842 9.44705 8.7042 9.4924C8.67205 9.51511 8.64596 9.53295 8.62692 9.54574L8.60375 9.56116L8.59634 9.566L8.59372 9.56769L8.59268 9.56836L8.59224 9.56865C8.59203 9.56878 8.59184 9.56891 8.20001 8.95891M8.20001 3.01843C7.84448 2.38659 7.84427 2.38671 7.84405 2.38684L7.84357 2.3871L7.84248 2.38772L7.83973 2.38928L7.83207 2.39368L7.80836 2.40754C7.78896 2.41902 7.76247 2.43499 7.7299 2.45534C7.66485 2.49599 7.57505 2.55441 7.4687 2.62967C7.25728 2.77929 6.97386 3.00014 6.68795 3.28539C6.13296 3.83911 5.47501 4.73073 5.47501 5.88386C5.47501 7.02464 6.12129 7.96373 6.663 8.56098C6.94367 8.87042 7.22226 9.11674 7.43033 9.2858C7.53491 9.37078 7.6231 9.43738 7.68674 9.48382C7.7186 9.50706 7.74442 9.52533 7.76319 9.53841L7.78597 9.55412L7.79319 9.55901L7.79572 9.56071L7.7967 9.56137L7.79713 9.56166C7.79732 9.56179 7.79751 9.56191 8.20001 8.95891M8.20001 8.95891L8.59184 9.56891L8.19238 9.82549L7.79751 9.56191L8.20001 8.95891Z"/><path stroke="#C1C9F1" stroke-opacity=".748" stroke-width="1.45" d="M8.20001 3.01843L8.54327 2.37984L8.19202 2.19104L7.84448 2.38659L8.20001 3.01843ZM8.20001 3.01843C8.54327 2.37984 8.54349 2.37996 8.54373 2.38009L8.54423 2.38036L8.54538 2.38098L8.54822 2.38252L8.5561 2.38684L8.58024 2.40037C8.59994 2.41154 8.62674 2.42706 8.65963 2.44684C8.72532 2.48635 8.81583 2.54319 8.92293 2.61674C9.13584 2.76295 9.4211 2.97984 9.70881 3.26327C10.2707 3.8168 10.925 4.70854 10.925 5.88386C10.925 7.04728 10.2819 7.98599 9.73423 8.58292C9.45202 8.89051 9.17186 9.13294 8.96247 9.29867C8.85723 9.38198 8.76842 9.44705 8.7042 9.4924C8.67205 9.51511 8.64596 9.53295 8.62692 9.54574L8.60375 9.56116L8.59634 9.566L8.59372 9.56769L8.59268 9.56836L8.59224 9.56865C8.59203 9.56878 8.59184 9.56891 8.20001 8.95891M8.20001 3.01843C7.84448 2.38659 7.84427 2.38671 7.84405 2.38684L7.84357 2.3871L7.84248 2.38772L7.83973 2.38928L7.83207 2.39368L7.80836 2.40754C7.78896 2.41902 7.76247 2.43499 7.7299 2.45534C7.66485 2.49599 7.57505 2.55441 7.4687 2.62967C7.25728 2.77929 6.97386 3.00014 6.68795 3.28539C6.13296 3.83911 5.47501 4.73073 5.47501 5.88386C5.47501 7.02464 6.12129 7.96373 6.663 8.56098C6.94367 8.87042 7.22226 9.11674 7.43033 9.2858C7.53491 9.37078 7.6231 9.43738 7.68674 9.48382C7.7186 9.50706 7.74442 9.52533 7.76319 9.53841L7.78597 9.55412L7.79319 9.55901L7.79572 9.56071L7.7967 9.56137L7.79713 9.56166C7.79732 9.56179 7.79751 9.56191 8.20001 8.95891M8.20001 8.95891L8.59184 9.56891L8.19238 9.82549L7.79751 9.56191L8.20001 8.95891Z"/><path stroke="#C51918" stroke-width="1.45" d="M8.20001 3.01843L8.54327 2.37984L8.19202 2.19104L7.84448 2.38659L8.20001 3.01843ZM8.20001 3.01843C8.54327 2.37984 8.54349 2.37996 8.54373 2.38009L8.54423 2.38036L8.54538 2.38098L8.54822 2.38252L8.5561 2.38684L8.58024 2.40037C8.59994 2.41154 8.62674 2.42706 8.65963 2.44684C8.72532 2.48635 8.81583 2.54319 8.92293 2.61674C9.13584 2.76295 9.4211 2.97984 9.70881 3.26327C10.2707 3.8168 10.925 4.70854 10.925 5.88386C10.925 7.04728 10.2819 7.98599 9.73423 8.58292C9.45202 8.89051 9.17186 9.13294 8.96247 9.29867C8.85723 9.38198 8.76842 9.44705 8.7042 9.4924C8.67205 9.51511 8.64596 9.53295 8.62692 9.54574L8.60375 9.56116L8.59634 9.566L8.59372 9.56769L8.59268 9.56836L8.59224 9.56865C8.59203 9.56878 8.59184 9.56891 8.20001 8.95891M8.20001 3.01843C7.84448 2.38659 7.84427 2.38671 7.84405 2.38684L7.84357 2.3871L7.84248 2.38772L7.83973 2.38928L7.83207 2.39368L7.80836 2.40754C7.78896 2.41902 7.76247 2.43499 7.7299 2.45534C7.66485 2.49599 7.57505 2.55441 7.4687 2.62967C7.25728 2.77929 6.97386 3.00014 6.68795 3.28539C6.13296 3.83911 5.47501 4.73073 5.47501 5.88386C5.47501 7.02464 6.12129 7.96373 6.663 8.56098C6.94367 8.87042 7.22226 9.11674 7.43033 9.2858C7.53491 9.37078 7.6231 9.43738 7.68674 9.48382C7.7186 9.50706 7.74442 9.52533 7.76319 9.53841L7.78597 9.55412L7.79319 9.55901L7.79572 9.56071L7.7967 9.56137L7.79713 9.56166C7.79732 9.56179 7.79751 9.56191 8.20001 8.95891M8.20001 8.95891L8.59184 9.56891L8.19238 9.82549L7.79751 9.56191L8.20001 8.95891Z"/><mask id="GUM_svg__c" width="5" height="6" x="6" y="3" mask-type="alpha" maskUnits="userSpaceOnUse"><path fill="#fff" d="M8.6658 7.60264C8.50626 7.77652 8.34563 7.92531 8.20601 8.044C8.06399 7.92086 7.89993 7.76643 7.73702 7.58682C7.27874 7.08156 6.92501 6.48312 6.92501 5.88386C6.92501 5.29694 7.26707 4.75586 7.71207 4.31187C7.88498 4.13936 8.05951 3.99578 8.20643 3.88594C8.35094 3.99143 8.52186 4.1294 8.69122 4.29624C9.12933 4.72783 9.47501 5.2688 9.47501 5.88386C9.47501 6.51082 9.11812 7.10963 8.6658 7.60264Z"/><path stroke="#fff" stroke-width="1.45" d="M8.6658 7.60264C8.50626 7.77652 8.34563 7.92531 8.20601 8.044C8.06399 7.92086 7.89993 7.76643 7.73702 7.58682C7.27874 7.08156 6.92501 6.48312 6.92501 5.88386C6.92501 5.29694 7.26707 4.75586 7.71207 4.31187C7.88498 4.13936 8.05951 3.99578 8.20643 3.88594C8.35094 3.99143 8.52186 4.1294 8.69122 4.29624C9.12933 4.72783 9.47501 5.2688 9.47501 5.88386C9.47501 6.51082 9.11812 7.10963 8.6658 7.60264Z"/></mask><g mask="url(#GUM_svg__c)"><path fill="#91CBCB" d="M6.467 7H10.2V7.75H6.467z"/><path fill="#FDF9A1" fill-rule="evenodd" d="M6.8009 7.59905C6.8009 7.59905 9.44793 7.6 9.69121 7.50865C9.9345 7.41731 9.23448 9.26243 8.34006 9.26243C7.44564 9.26243 6.8009 7.59905 6.8009 7.59905Z" clip-rule="evenodd"/><path fill="#A68861" d="M9.29681 7.3776L8.82129 7.7435C8.07185 6.76957 7.75748 5.76204 7.89166 4.73376L8.48662 4.8114C8.37423 5.67266 8.6398 6.52378 9.29681 7.3776Z"/><path fill="#239E46" fill-rule="evenodd" d="M8.19684 4.81838 7.74318 5.34995C7.72616 5.3699 7.69382 5.35352 7.69983 5.32799L7.85588 4.66521H7.14622C7.11914 4.66521 7.11138 4.62819 7.13618 4.61732L7.74258 4.35147 7.31217 3.78402C7.29693 3.76392 7.31767 3.73646 7.34117 3.74562L8.018 4.00947 8.17251 3.38775C8.1788 3.36244 8.21479 3.36246 8.22105 3.38778L8.37475 4.00947 9.04571 3.74823C9.06971 3.73888 9.09046 3.76755 9.07408 3.78742L8.60927 4.35147 9.25063 4.61712C9.2759 4.62758 9.26842 4.66521 9.24106 4.66521H8.60927L8.70542 5.34329C8.70893 5.36807 8.6779 5.38206 8.66165 5.36303L8.19684 4.81838zM7.79999 6.5H10.2V7.025H7.79999V6.5z" clip-rule="evenodd"/></g></g></g></svg>

<svg xmlns="http://www.w3.org/2000/svg" fill="none" viewBox="0 0 16 12"><mask id="GUM_svg__a" width="16" height="12" x="0" y="0" maskUnits="userSpaceOnUse"><path fill="#fff" d="M0 0h16v12H0z"/></mask><g mask="url(#GUM_svg__a)"><path fill="#C51918" fill-rule="evenodd" d="M0 0h16v12H0V0z" clip-rule="evenodd"/><path fill="#4564F9" fill-rule="evenodd" d="M2 2h12v8H2V2z" clip-rule="evenodd"/><path stroke="#CBDAFF" stroke-opacity=".1" d="M2.5 2.5h11v7h-11v-7z"/><mask id="GUM_svg__b" width="12" height="8" x="2" y="2" maskUnits="userSpaceOnUse"><path fill="#fff" fill-rule="evenodd" d="M2 2h12v8H2V2z" clip-rule="evenodd"/><path stroke="#fff" d="M2.5 2.5h11v7h-11v-7z"/></mask><g mask="url(#GUM_svg__b)"><path fill="#CCE0E5" fill-rule="evenodd" d="M8 2s3 1.448 3 3.859C11 8.269 8 10 8 10S5 8.202 5 5.859C5 3.515 8 2 8 2z" clip-rule="evenodd"/><path stroke="#C1C9F1" stroke-opacity=".148" stroke-width="1.45" d="M8 2l.315-.653-.322-.156-.32.162L8 2zm0 0l.316-.653h0l.001.001.004.002.01.005.032.016a7.63 7.63 0 01.486.276 8.26 8.26 0 011.131.835c.807.713 1.745 1.86 1.745 3.377 0 1.503-.925 2.716-1.718 3.493A9.421 9.421 0 018.408 10.6l-.031.018-.01.006-.003.002h0-.001L8 10m0-8l-.327-.647h0-.002l-.003.003-.01.005-.032.016a8.018 8.018 0 00-.484.284 8.79 8.79 0 00-1.126.85c-.799.715-1.741 1.862-1.741 3.348 0 1.471.928 2.686 1.715 3.464a9.886 9.886 0 001.592 1.27l.031.02.01.006.002.002h.001L8 10m0 0l.362.628-.37.213-.365-.22L8 10z"/><path fill="#CCE0E5" d="M8.2 3.018l.343-.638-.351-.189-.348.196.356.631zm0 0l.344-.638h.001l.003.002.008.005.024.013.08.047a5.85 5.85 0 011.05.816c.56.554 1.215 1.446 1.215 2.62 0 1.164-.643 2.103-1.19 2.7a6.71 6.71 0 01-1.108.963l-.023.015-.008.005-.002.002h-.001l-.393-.61m0-5.94l-.356-.631h-.002l-.002.002-.008.005-.024.013-.078.048a6.135 6.135 0 00-1.042.83c-.555.554-1.213 1.446-1.213 2.599 0 1.14.646 2.08 1.188 2.677a7.044 7.044 0 001.1.977l.023.016.007.005.003.002h.001L8.2 8.96m0 0l.392.61-.4.256-.394-.263.402-.603z"/><path stroke="#C1C9F1" stroke-opacity=".748" stroke-width="1.45" d="M8.2 3.018l.343-.638-.351-.189-.348.196.356.631zm0 0l.344-.638h.001l.003.002.008.005.024.013.08.047a5.85 5.85 0 011.05.816c.56.554 1.215 1.446 1.215 2.62 0 1.164-.643 2.103-1.19 2.7a6.71 6.71 0 01-1.108.963l-.023.015-.008.005-.002.002h-.001 0l-.393-.61m0-5.94l-.356-.631h0-.002l-.002.002-.008.005-.024.013-.078.048a6.135 6.135 0 00-1.042.83c-.555.554-1.213 1.446-1.213 2.599 0 1.14.646 2.08 1.188 2.677a7.044 7.044 0 001.1.977l.023.016.007.005.003.002h.001L8.2 8.96m0 0l.392.61-.4.256-.394-.263.402-.603z"/><path stroke="#C51918" stroke-width="1.45" d="M8.2 3.018l.343-.638-.351-.189-.348.196.356.631zm0 0l.344-.638h.001l.003.002.008.005.024.013.08.047a5.85 5.85 0 011.05.816c.56.554 1.215 1.446 1.215 2.62 0 1.164-.643 2.103-1.19 2.7a6.71 6.71 0 01-1.108.963l-.023.015-.008.005-.002.002h-.001 0l-.393-.61m0-5.94l-.356-.631h0-.002l-.002.002-.008.005-.024.013-.078.048a6.135 6.135 0 00-1.042.83c-.555.554-1.213 1.446-1.213 2.599 0 1.14.646 2.08 1.188 2.677a7.044 7.044 0 001.1.977l.023.016.007.005.003.002h.001L8.2 8.96m0 0l.392.61-.4.256-.394-.263.402-.603z"/><mask id="GUM_svg__c" width="5" height="6" x="6" y="3" maskUnits="userSpaceOnUse"><path fill="#fff" d="M8.666 7.603a5.37 5.37 0 01-.46.441 5.516 5.516 0 01-.469-.457c-.458-.505-.812-1.104-.812-1.703 0-.587.342-1.128.787-1.572.173-.173.348-.316.494-.426.145.105.316.243.485.41.438.432.784.973.784 1.588 0 .627-.357 1.226-.81 1.719z"/><path stroke="#fff" stroke-width="1.45" d="M8.666 7.603a5.37 5.37 0 01-.46.441 5.516 5.516 0 01-.469-.457c-.458-.505-.812-1.104-.812-1.703 0-.587.342-1.128.787-1.572.173-.173.348-.316.494-.426.145.105.316.243.485.41.438.432.784.973.784 1.588 0 .627-.357 1.226-.81 1.719z"/></mask><g mask="url(#GUM_svg__c)"><path fill="#91CBCB" d="M6.467 7H10.2v.75H6.467z"/><path fill="#FDF9A1" fill-rule="evenodd" d="M6.8 7.599s2.648 0 2.891-.09c.243-.092-.457 1.753-1.35 1.753C7.445 9.262 6.8 7.6 6.8 7.6z" clip-rule="evenodd"/><path fill="#A68861" d="M9.297 7.378l-.476.365c-.75-.973-1.064-1.981-.93-3.01l.596.078c-.113.862.153 1.713.81 2.567z"/><path fill="#239E46" fill-rule="evenodd" d="M8.197 4.818l-.454.532c-.017.02-.05.004-.043-.022l.156-.663h-.71c-.027 0-.035-.037-.01-.048l.607-.266-.43-.567c-.016-.02.005-.048.028-.038l.677.263.155-.621a.025.025 0 01.048 0l.154.621.67-.26c.025-.01.045.019.03.038l-.466.564.642.266c.025.01.017.048-.01.048H8.61l.096.678c.004.025-.027.039-.043.02l-.465-.545zM7.8 6.5h2.4v.525H7.8V6.5z" clip-rule="evenodd"/></g></g></g></svg>
